static/assets/icons/alby-logo-text-light.svg

<svg xmlns="http://www.w3.org/2000/svg" width="1211" height="525" fill="none"><circle cx="36.675" cy="36.675" r="36.675" fill="#000" transform="matrix(-1 0 0 1 131.381 101.468)"/><path stroke="#000" stroke-width="18.337" d="m88.594 132.641 68.46 68.46"/><circle cx="394.219" cy="138.143" r="36.675" fill="#000"/><path stroke="#000" stroke-width="18.337" d="m400.942 132.641-68.46 68.46"/><path fill="#FFDF6F" fill-rule="evenodd" d="M105.116 356.993c-19.766-9.41-31.27-30.542-27.417-52.092 16.54-92.495 85.467-161.868 167.986-161.868 82.719 0 151.78 69.71 168.105 162.54 3.796 21.59-7.801 42.712-27.635 52.045-42.441 19.973-89.846 31.137-139.859 31.137-50.532 0-98.402-11.398-141.18-31.762Z" clip-rule="evenodd"/><path fill="#000" d="m413.79 305.573 9.03-1.588-9.03 1.588Zm-327.065.942c15.981-89.375 82.043-154.314 158.96-154.314v-18.337c-88.121 0-159.914 73.808-177.011 169.423l18.05 3.228Zm158.96-154.314c77.102 0 143.3 65.256 159.075 154.96l18.06-3.176c-16.875-95.957-88.8-170.121-177.135-170.121v18.337Zm136.566 197.121c-41.246 19.41-87.32 30.264-135.955 30.264v18.338c51.39 0 100.126-11.475 143.763-32.01l-7.808-16.592Zm-135.955 30.264c-49.14 0-95.666-11.081-137.239-30.872l-7.882 16.557c43.983 20.939 93.197 32.653 145.121 32.653v-18.338Zm158.464-72.425c3.044 17.31-6.224 34.498-22.509 42.161l7.808 16.592c23.384-11.004 37.31-36.059 32.761-61.929l-18.06 3.176Zm-336.086-3.874c-4.618 25.823 9.198 50.891 32.501 61.984l7.882-16.557c-16.23-7.726-25.422-24.922-22.332-42.199l-18.051-3.228Z"/><path fill="#000" fill-rule="evenodd" d="M140.385 333.998c-15.911-6.48-25.349-23.409-19.836-39.681 17.002-50.179 66.6-86.492 125.136-86.492s108.134 36.313 125.137 86.492c5.513 16.272-3.925 33.201-19.836 39.681-32.498 13.235-68.048 20.527-105.301 20.527s-72.803-7.292-105.3-20.527Z" clip-rule="evenodd"/><ellipse cx="287.861" cy="286.065" fill="#fff" rx="30.563" ry="24.45"/><ellipse cx="200.369" cy="286.08" fill="#fff" rx="30.563" ry="24.45"/><path fill="#000" d="M624.474 134.4h58.24l81.28 215.04-57.28 5.76-15.68-46.08h-75.2L600.794 352h-57.92l81.6-217.6Zm49.92 128.96-21.76-59.2-20.8 59.2h42.56ZM838.214 352h-58.24V129.6l58.24-3.52V352Zm61.362 0h-29.44V129.6l58.24-3.52v69.44a66.375 66.375 0 0 1 11.2-2.88 54.44 54.44 0 0 1 11.84-1.28c15.36 0 29.014 2.88 40.96 8.64 11.944 5.76 21.334 14.613 28.164 26.56 7.04 11.947 10.56 27.2 10.56 45.76 0 18.347-3.52 33.707-10.56 46.08-6.83 12.373-16.43 21.653-28.804 27.84-12.16 6.187-26.453 9.28-42.88 9.28-6.826 0-13.546-1.067-20.16-3.2-6.4-2.133-12.8-5.547-19.2-10.24l-9.92 9.92Zm42.88-115.84c-4.266 0-8.96 1.6-14.08 4.8v65.28c5.76 2.987 11.307 4.48 16.64 4.48 7.254 0 13.334-3.307 18.24-9.92 5.12-6.827 7.68-16.213 7.68-28.16s-2.453-21.013-7.36-27.2c-4.906-6.187-11.946-9.28-21.12-9.28ZM1088.7 352.64l1.28-3.52-55.68-142.72 53.76-15.36 31.68 93.44 29.76-87.68h57.92l-68.16 173.44c-3.2 8.32-8.43 16-15.68 23.04-7.25 7.04-15.68 13.013-25.28 17.92-9.6 4.907-19.52 8.533-29.76 10.88l-19.52-45.12a467.71 467.71 0 0 0 16-7.04c5.76-2.56 10.88-5.333 15.36-8.32 4.48-2.987 7.25-5.973 8.32-8.96Z"/></svg>

<svg width="1211" height="525" viewBox="0 0 1211 525" fill="none" xmlns="http://www.w3.org/2000/svg">
<circle cx="36.675" cy="36.675" r="36.675" transform="matrix(-1 0 0 1 131.381 101.468)" fill="black"/>
<path d="M88.5937 132.641L157.054 201.101" stroke="black" stroke-width="18.3375"/>
<circle cx="394.219" cy="138.143" r="36.675" fill="black"/>
<path d="M400.942 132.641L332.482 201.101" stroke="black" stroke-width="18.3375"/>
<path fill-rule="evenodd" clip-rule="evenodd" d="M105.116 356.993C85.3498 347.583 73.8458 326.451 77.6993 304.901C94.2388 212.406 163.166 143.033 245.685 143.033C328.404 143.033 397.465 212.743 413.79 305.573C417.586 327.163 405.989 348.285 386.155 357.618C343.714 377.591 296.309 388.755 246.296 388.755C195.764 388.755 147.894 377.357 105.116 356.993Z" fill="#FFDF6F"/>
<path d="M413.79 305.573L422.82 303.985L413.79 305.573ZM86.7249 306.515C102.706 217.14 168.768 152.201 245.685 152.201V133.864C157.564 133.864 85.7711 207.672 68.6737 303.287L86.7249 306.515ZM245.685 152.201C322.787 152.201 388.985 217.457 404.76 307.161L422.82 303.985C405.945 208.028 334.02 133.864 245.685 133.864V152.201ZM382.251 349.322C341.005 368.732 294.931 379.586 246.296 379.586V397.924C297.686 397.924 346.422 386.449 390.059 365.914L382.251 349.322ZM246.296 379.586C197.156 379.586 150.63 368.505 109.057 348.714L101.175 365.271C145.158 386.21 194.372 397.924 246.296 397.924V379.586ZM404.76 307.161C407.804 324.471 398.536 341.659 382.251 349.322L390.059 365.914C413.443 354.91 427.369 329.855 422.82 303.985L404.76 307.161ZM68.6737 303.287C64.0561 329.11 77.872 354.178 101.175 365.271L109.057 348.714C92.8275 340.988 83.6355 323.792 86.7249 306.515L68.6737 303.287Z" fill="black"/>
<path fill-rule="evenodd" clip-rule="evenodd" d="M140.385 333.998C124.474 327.518 115.036 310.589 120.549 294.317C137.551 244.138 187.149 207.825 245.685 207.825C304.221 207.825 353.819 244.138 370.822 294.317C376.335 310.589 366.897 327.518 350.986 333.998C318.488 347.233 282.938 354.525 245.685 354.525C208.432 354.525 172.882 347.233 140.385 333.998Z" fill="black"/>
<ellipse cx="287.861" cy="286.065" rx="30.5625" ry="24.45" fill="white"/>
<ellipse cx="200.369" cy="286.08" rx="30.5625" ry="24.45" fill="white"/>
<path d="M624.474 134.4H682.714L763.994 349.44L706.714 355.2L691.034 309.12H615.834L600.794 352H542.874L624.474 134.4ZM674.394 263.36L652.634 204.16L631.834 263.36H674.394ZM838.214 352H779.974V129.6L838.214 126.08V352ZM899.576 352H870.136V129.6L928.376 126.08V195.52C932.003 194.24 935.736 193.28 939.576 192.64C943.416 191.787 947.363 191.36 951.416 191.36C966.776 191.36 980.43 194.24 992.376 200C1004.32 205.76 1013.71 214.613 1020.54 226.56C1027.58 238.507 1031.1 253.76 1031.1 272.32C1031.1 290.667 1027.58 306.027 1020.54 318.4C1013.71 330.773 1004.11 340.053 991.736 346.24C979.576 352.427 965.283 355.52 948.856 355.52C942.03 355.52 935.31 354.453 928.696 352.32C922.296 350.187 915.896 346.773 909.496 342.08L899.576 352ZM942.456 236.16C938.19 236.16 933.496 237.76 928.376 240.96V306.24C934.136 309.227 939.683 310.72 945.016 310.72C952.27 310.72 958.35 307.413 963.256 300.8C968.376 293.973 970.936 284.587 970.936 272.64C970.936 260.693 968.483 251.627 963.576 245.44C958.67 239.253 951.63 236.16 942.456 236.16ZM1088.7 352.64L1089.98 349.12L1034.3 206.4L1088.06 191.04L1119.74 284.48L1149.5 196.8H1207.42L1139.26 370.24C1136.06 378.56 1130.83 386.24 1123.58 393.28C1116.33 400.32 1107.9 406.293 1098.3 411.2C1088.7 416.107 1078.78 419.733 1068.54 422.08L1049.02 376.96C1054.14 374.827 1059.47 372.48 1065.02 369.92C1070.78 367.36 1075.9 364.587 1080.38 361.6C1084.86 358.613 1087.63 355.627 1088.7 352.64Z" fill="black"/>
</svg>
